X: 14
T:Castell Tywyn
T:Towyn Castle
M:3/4
L:1/8
Q:200
C:Trad
S:51 Welsh Airs
R:Waltz
A:Wales
H:From a facsimile c.1840: A Choice Collection of Fifty-One Welsh Airs
H:adapted for The Harp, Piano-Forte, Harpsichord,
H:Violin, or Flute by Edward Jones
H:"Harper to His Late Majesty King George IV, when
H:Prince of Wales".
Z:brian_martin12345@yahoo.com
K:F
"Majestic"
(3cde|f2c2B2|{B}A2G2F2|G2c2B2|A2GAF2|G2c2c2|c=Bcdec|fedcd=B|c4:||!
ef|g2g>af>g|e2dec2|f2agfe|{de}d4e2|f2f>gf>g|e2e>fe>f|!
dcdefd|({cd}c4B2)|A2f2A2|({Bc}B4A2)|GAF2E2|F4:||
